X: 1
T: the King's Reel #1
O: Skye Coll.
B: Keith Norman MacDonald: "The Skye collection of the best reels & strathspeys extant": 1887
Z: 2011 Ralph Palmer
R: Reel
M: C|
L: 1/8
K: Ador
B,| "Am"A,<A, EA, FA,EA, | "Am"A,<A, ED CA,A,B, | "Am"A,<A, EA, "D7"FA,EF | "G"G2 DC B,G,G, :|
e | "Am"c{B}A eA aAeA | "Am"c{B}A eA cAAe | c{B}A eA "D7"aAef | "G"g2 dc BGG |]
e | "Am"c{B}A eA aAeA | "Am"c{B}A ed cAAB | "C"c2 ec "G"B2 dB | "G"[BG]gdg BGG |]
%%text Also played in Amix.
